lib/logo_tmp/nrk-logo-nrk-nyheter-symbol--blackwhite.svg

<svg width="26" height="26" viewBox="0 0 26 26" fill="none" xmlns="http://www.w3.org/2000/svg">
<path d="M13.152 0.5C6.237 0.5 0.5 5.94 0.5 12.995C0.5 19.931 5.924 25.5 12.839 25.5C19.68 25.5 25.5 20.134 25.5 13.199C25.5 6.207 20.104 0.5 13.152 0.5Z" fill="black"/>
<path d="M6.135 17.087H5.205L3.907 14.557H3.897V16.487L4.229 16.579V17.087H2.802V16.579L3.142 16.486V13.55L2.802 13.448V12.958H4.036L5.39 15.711V13.55L5.049 13.448V12.958H6.485V13.448L6.135 13.55V17.087ZM9.662 14.51L9.432 14.575L8.612 17.087C8.345 17.909 8.032 18.297 7.369 18.297C6.992 18.297 6.669 18.177 6.485 18.093L6.67 17.465C6.77 17.493 6.983 17.585 7.176 17.585C7.379 17.585 7.48 17.521 7.563 17.335L7.618 17.188L6.789 14.584L6.559 14.501V13.993H8.059V14.501L7.774 14.575L8.226 16.329H8.244L8.732 14.575L8.465 14.491V13.993H9.662V14.51ZM13.042 17.087H11.789V15.157C11.789 14.805 11.688 14.677 11.467 14.677C11.2932 14.679 11.126 14.7445 10.997 14.861V16.495L11.357 16.588V17.087H9.753V16.587L10.093 16.495V13.531L9.753 13.439V12.959H10.969V14.297H10.996C11.226 14.067 11.447 13.928 11.825 13.928C12.395 13.928 12.69 14.251 12.69 14.925V16.495L13.04 16.588V17.087H13.042ZM14.856 16.422C15.095 16.422 15.389 16.357 15.702 16.228L15.878 16.846C15.5276 17.0464 15.1307 17.1516 14.727 17.151C13.824 17.151 13.253 16.653 13.253 15.544C13.253 14.51 13.806 13.928 14.662 13.928C15.472 13.928 15.887 14.39 15.887 15.341C15.887 15.461 15.868 15.655 15.85 15.794H14.192C14.211 16.163 14.386 16.422 14.856 16.422ZM14.634 14.602C14.303 14.602 14.211 14.889 14.202 15.23H15.058C15.058 14.815 14.957 14.602 14.634 14.602ZM17.461 17.152C16.808 17.152 16.55 16.856 16.55 16.209V14.676H16.135V13.993H16.587L16.743 13.253H17.453V13.993H18.133V14.676H17.453V16.08C17.453 16.357 17.535 16.459 17.756 16.459C17.8869 16.4533 18.0154 16.4217 18.134 16.366L18.299 16.948C18.097 17.087 17.682 17.151 17.461 17.151V17.152ZM20.031 16.422C20.27 16.422 20.565 16.357 20.878 16.228L21.053 16.846C20.7023 17.0467 20.3051 17.1518 19.901 17.151C18.999 17.151 18.428 16.653 18.428 15.544C18.428 14.51 18.981 13.928 19.838 13.928C20.648 13.928 21.062 14.39 21.062 15.341C21.062 15.461 21.043 15.655 21.025 15.794H19.367C19.386 16.163 19.561 16.422 20.03 16.422H20.031ZM19.809 14.602C19.478 14.602 19.386 14.889 19.377 15.23H20.233C20.233 14.815 20.132 14.602 19.809 14.602ZM23.179 14.879C22.931 14.879 22.738 14.953 22.627 15.156V16.486L23.115 16.588V17.087H21.402V16.587L21.725 16.505V14.584L21.402 14.501V13.993H22.397L22.517 14.51H22.544C22.654 14.131 22.913 13.928 23.226 13.928C23.373 13.928 23.502 13.956 23.502 13.956V14.898C23.3946 14.8878 23.2869 14.8815 23.179 14.879ZM16.099 11.287C16.099 11.342 16.062 11.342 16.062 11.342H14.653C14.653 11.342 14.616 11.342 14.616 11.287V7.16698C14.616 7.12198 14.653 7.12198 14.653 7.12198H16.062C16.062 7.12198 16.099 7.12198 16.099 7.16798V11.287ZM12.903 7.84998C12.903 7.28698 13.318 7.01898 13.723 7.01898C14.211 7.01898 14.533 7.38898 14.533 7.87798C14.5328 7.98235 14.5117 8.08563 14.4712 8.18181C14.4307 8.27798 14.3714 8.36513 14.2969 8.43818C14.2223 8.51124 14.134 8.56873 14.037 8.60733C13.94 8.64592 13.8364 8.66484 13.732 8.66298C13.162 8.66298 12.903 8.23798 12.903 7.84998ZM9.625 11.286L8.695 7.16598C8.695 7.12098 8.695 7.12098 8.741 7.12098H9.625C10.03 7.12098 10.325 7.38898 10.408 7.81298L11.2 11.286C11.2 11.286 11.2 11.341 11.154 11.341H9.67C9.67 11.341 9.633 11.341 9.624 11.286H9.625ZM7.13 7.16698C7.13 7.12198 7.13 7.12198 7.176 7.12198H8.612V11.342H7.176C7.13 11.342 7.13 11.342 7.13 11.287V7.16698ZM11.338 7.16698C11.338 7.12198 11.338 7.12198 11.375 7.12198H12.728C12.765 7.12198 12.765 7.12198 12.765 7.16798V11.287C12.765 11.342 12.765 11.342 12.728 11.342H11.375C11.338 11.342 11.338 11.342 11.338 11.287V7.16698ZM16.402 8.85798L17.415 7.16798C17.415 7.16798 17.434 7.12198 17.498 7.12198H19.027C19.054 7.12198 19.064 7.13998 19.054 7.16798L17.894 9.06098C17.83 9.20898 17.839 9.24598 17.94 9.41198L19.054 11.287C19.091 11.333 19.045 11.342 19.045 11.342H17.498C17.452 11.342 17.434 11.333 17.425 11.315L16.375 9.53198C16.227 9.25498 16.209 9.17198 16.402 8.85798Z" fill="white"/>
</svg>

<svg xmlns="http://www.w3.org/2000/svg" viewBox="0 0 26 26"><path fill="#000" d="M13.152.5C6.237.5.5 5.94.5 12.995.5 19.931 5.924 25.5 12.839 25.5c6.841 0 12.661-5.366 12.661-12.301C25.5 6.207 20.104.5 13.152.5Z"/><path fill="#fff" d="M6.135 17.087h-.93l-1.298-2.53h-.01v1.93l.332.092v.508H2.802v-.508l.34-.093V13.55l-.34-.102v-.49h1.234l1.354 2.753V13.55l-.341-.102v-.49h1.436v.49l-.35.102v3.537Zm3.527-2.577-.23.065-.82 2.512c-.267.822-.58 1.21-1.243 1.21-.377 0-.7-.12-.884-.204l.185-.628c.1.028.313.12.506.12.203 0 .304-.064.387-.25l.055-.147-.829-2.604-.23-.083v-.508h1.5v.508l-.285.074.452 1.754h.018l.488-1.754-.267-.084v-.498h1.197v.517Zm3.38 2.577h-1.253v-1.93c0-.352-.101-.48-.322-.48a.714.714 0 0 0-.47.184v1.634l.36.093v.499H9.753v-.5l.34-.092v-2.964l-.34-.092v-.48h1.216v1.338h.027c.23-.23.451-.369.829-.369.57 0 .865.323.865.997v1.57l.35.093v.499h.002Zm1.814-.665c.239 0 .533-.065.846-.194l.176.618c-.35.2-.747.306-1.151.305-.903 0-1.474-.498-1.474-1.607 0-1.034.553-1.616 1.409-1.616.81 0 1.225.462 1.225 1.413 0 .12-.019.314-.037.453h-1.658c.019.369.194.628.664.628Zm-.222-1.82c-.331 0-.423.287-.432.628h.856c0-.415-.101-.628-.424-.628Zm2.827 2.55c-.653 0-.911-.296-.911-.943v-1.533h-.415v-.683h.452l.156-.74h.71v.74h.68v.683h-.68v1.404c0 .277.082.379.303.379a.99.99 0 0 0 .378-.093l.165.582c-.202.139-.617.203-.838.203v.001Zm2.57-.73c.239 0 .534-.065.847-.194l.175.618c-.35.2-.748.306-1.152.305-.902 0-1.473-.498-1.473-1.607 0-1.034.553-1.616 1.41-1.616.81 0 1.224.462 1.224 1.413 0 .12-.019.314-.037.453h-1.658c.019.369.194.628.663.628h.001Zm-.222-1.82c-.331 0-.423.287-.432.628h.856c0-.415-.101-.628-.424-.628Zm3.37.277c-.248 0-.441.074-.552.277v1.33l.488.102v.499h-1.713v-.5l.323-.082v-1.921l-.323-.083v-.508h.995l.12.517h.027c.11-.379.369-.582.682-.582.147 0 .276.028.276.028v.942a4.524 4.524 0 0 0-.323-.019Zm-7.08-3.592c0 .055-.037.055-.037.055h-1.409s-.037 0-.037-.055v-4.12c0-.045.037-.045.037-.045h1.409s.037 0 .037.046v4.119ZM12.903 7.85c0-.563.415-.831.82-.831.488 0 .81.37.81.859a.787.787 0 0 1-.801.785c-.57 0-.829-.425-.829-.813Zm-3.278 3.436-.93-4.12c0-.045 0-.045.046-.045h.884c.405 0 .7.268.783.692l.792 3.473s0 .055-.046.055H9.67s-.037 0-.046-.055h.001ZM7.13 7.167c0-.045 0-.045.046-.045h1.436v4.22H7.176c-.046 0-.046 0-.046-.055v-4.12Zm4.208 0c0-.045 0-.045.037-.045h1.353c.037 0 .037 0 .037.046v4.119c0 .055 0 .055-.037.055h-1.353c-.037 0-.037 0-.037-.055v-4.12Zm5.064 1.691 1.013-1.69s.019-.046.083-.046h1.529c.027 0 .037.018.027.046l-1.16 1.893c-.064.148-.055.185.046.351l1.114 1.875c.037.046-.009.055-.009.055h-1.547c-.046 0-.064-.009-.073-.027l-1.05-1.783c-.148-.277-.166-.36.027-.674Z"/></svg>
